X:147
T:Miss Williams Fancy. Le4.147
Q:3/8=100
L:1/8
B:L.Leadley MS#4 c1850
Z:vmp.Mike Hicken 2015 www.village-music-project.org.uk
N: Tune 68 in "The Fiddler of Helperby"
N: * In the original these notes are shown as crotchets. They have been changed to give the correct bar lengths.
N: ** In "The Fiddler of Helperby" this bar is the same bar 7 of the A part.
M:6/8
K:G
dBG GAG|g3 e3|dBG GAG|FAA A2B|dBG GAG|g3e3|ded cBA|BGG "*"G3 :|
|: d3 dgb|c3 ceg|B3 Bcd|cAA A2B|G3 GBd|efg gfe|"**"d>ed cAA|BGG "*"G3 :|

